src/assets/filled/TruckFast.svg

<svg width="24" height="24" viewBox="0 0 24 24"  xmlns="http://www.w3.org/2000/svg">
<path d="M21.5 15.5C21.78 15.5 22 15.72 22 16V17C22 18.66 20.66 20 19 20C19 18.35 17.65 17 16 17C14.35 17 13 18.35 13 20H11C11 18.35 9.65 17 8 17C6.35 17 5 18.35 5 20C3.34 20 2 18.66 2 17V15C2 14.45 2.45 14 3 14H12.5C13.88 14 15 12.88 15 11.5V6C15 5.45 15.45 5 16 5H16.84C17.56 5 18.22 5.39 18.58 6.01L19.22 7.13C19.31 7.29 19.19 7.5 19 7.5C17.62 7.5 16.5 8.62 16.5 10V13C16.5 14.38 17.62 15.5 19 15.5H21.5Z" />
<path d="M8 22C9.10457 22 10 21.1046 10 20C10 18.8954 9.10457 18 8 18C6.89543 18 6 18.8954 6 20C6 21.1046 6.89543 22 8 22Z" />
<path d="M16 22C17.1046 22 18 21.1046 18 20C18 18.8954 17.1046 18 16 18C14.8954 18 14 18.8954 14 20C14 21.1046 14.8954 22 16 22Z" />
<path d="M22 12.53V14H19C18.45 14 18 13.55 18 13V10C18 9.45 18.45 9 19 9H20.29L21.74 11.54C21.91 11.84 22 12.18 22 12.53Z" />
<path d="M13.08 2H5.69C3.9 2 2.4 3.28 2.07 4.98H6.44C6.82 4.98 7.12 5.29 7.12 5.67C7.12 6.05 6.82 6.35 6.44 6.35H2V7.73H4.6C4.98 7.73 5.29 8.04 5.29 8.42C5.29 8.8 4.98 9.1 4.6 9.1H2V10.48H2.77C3.15 10.48 3.46 10.79 3.46 11.17C3.46 11.55 3.15 11.85 2.77 11.85H2V12.08C2 12.63 2.45 13.08 3 13.08H12.15C13.17 13.08 14 12.25 14 11.23V2.92C14 2.41 13.59 2 13.08 2Z" />
<path d="M2.07 4.97998H1.92H0.94C0.56 4.97998 0.25 5.28998 0.25 5.66998C0.25 6.04998 0.56 6.34998 0.94 6.34998H1.85H2V5.68998C2 5.44998 2.03 5.20998 2.07 4.97998Z" />
<path d="M1.85 7.72998H0.94C0.56 7.72998 0.25 8.03998 0.25 8.41998C0.25 8.79998 0.56 9.09998 0.94 9.09998H1.85H2V7.72998H1.85Z" />
<path d="M1.85 10.48H0.94C0.56 10.48 0.25 10.79 0.25 11.17C0.25 11.55 0.56 11.85 0.94 11.85H1.85H2V10.48H1.85Z" />
</svg>

<?xml version="1.0" encoding="UTF-8"?>
<svg width="24" height="24" viewBox="0 0 24 24" xmlns="http://www.w3.org/2000/svg">
 <path d="m21.5 15.5c0.28 0 0.5 0.22 0.5 0.5v1c0 1.66-1.34 3-3 3 0-1.65-1.35-3-3-3s-3 1.35-3 3h-2c0-1.65-1.35-3-3-3s-3 1.35-3 3c-1.66 0-3-1.34-3-3v-2c0-0.55 0.45-1 1-1h9.5c1.38 0 2.5-1.12 2.5-2.5v-5.5c0-0.55 0.45-1 1-1h0.84c0.72 0 1.38 0.39 1.74 1.01l0.64 1.12c0.09 0.16-0.03 0.37-0.22 0.37-1.38 0-2.5 1.12-2.5 2.5v3c0 1.38 1.12 2.5 2.5 2.5h2.5z"/>
 <path d="m8 22c1.1046 0 2-0.8954 2-2s-0.89543-2-2-2-2 0.8954-2 2 0.89543 2 2 2z"/>
 <path d="m16 22c1.1046 0 2-0.8954 2-2s-0.8954-2-2-2-2 0.8954-2 2 0.8954 2 2 2z"/>
 <path d="m22 12.53v1.47h-3c-0.55 0-1-0.45-1-1v-3c0-0.55 0.45-1 1-1h1.29l1.45 2.54c0.17 0.3 0.26 0.64 0.26 0.99z"/>
 <path d="m13.08 2h-7.39c-1.79 0-3.29 1.28-3.62 2.98h4.37c0.38 0 0.68 0.31 0.68 0.69s-0.3 0.68-0.68 0.68h-4.44v1.38h2.6c0.38 0 0.69 0.31 0.69 0.69s-0.31 0.68-0.69 0.68h-2.6v1.38h0.77c0.38 0 0.69 0.31 0.69 0.69s-0.31 0.68-0.69 0.68h-0.77v0.23c0 0.55 0.45 1 1 1h9.15c1.02 0 1.85-0.83 1.85-1.85v-8.31c0-0.51-0.41-0.92-0.92-0.92z"/>
 <path d="m2.07 4.98h-1.13c-0.38 0-0.69 0.31-0.69 0.69s0.31 0.68 0.69 0.68h1.06v-0.66c0-0.24 0.03-0.48 0.07-0.71z"/>
 <path d="m1.85 7.73h-0.91c-0.38 0-0.69 0.31-0.69 0.69s0.31 0.68 0.69 0.68h1.06v-1.37h-0.15z"/>
 <path d="m1.85 10.48h-0.91c-0.38 0-0.69 0.31-0.69 0.69s0.31 0.68 0.69 0.68h1.06v-1.37h-0.15z"/>
</svg>
